archdroid-icon-theme/Archdroid-DeepOrange/apps/scalable/system-lock-screen.svg

<svg fill="#FF5722" height="28" viewBox="0 0 44 28" width="44" xmlns="http://www.w3.org/2000/svg"><path d="m40 0h-36c-2.21 0-4 1.79-4 4v20c0 2.21 1.79 4 4 4h36c2.21 0 4-1.79 4-4v-20c0-2.21-1.79-4-4-4zm-4 24h-28v-20h28zm-18-2h8c1.11 0 2-.9 2-2v-6c0-1.1-.89-2-2-2v-2c0-2.21-1.79-4-4-4s-4 1.79-4 4v2c-1.11 0-2 .9-2 2v6c0 1.1.89 2 2 2zm1.6-12c0-1.33 1.07-2.4 2.4-2.4s2.4 1.08 2.4 2.4v2h-4.8z" fill="#FF5722"/></svg>

<svg fill="#FF5722" height="28" version="1.1" viewBox="0 0 44 28" width="44" xmlns="http://www.w3.org/2000/svg"><path d="M40 0L4 0C1.79 0 0 1.79 0 4l0 20c0 2.21 1.79 4 4 4l36 0c2.21 0 4-1.79 4-4L44 4C44 1.79 42.21 0 40 0ZM36 24L8 24 8 4 36 4 36 24Zm-18-2l8 0c1.11 0 2-.9 2-2l0-6c0-1.1-.89-2-2-2l0-2C26 7.79 24.21 6 22 6 19.79 6 18 7.79 18 10l0 2c-1.11 0-2 .9-2 2l0 6c0 1.1.89 2 2 2zm1.6-12c0-1.33 1.07-2.4 2.4-2.4 1.33 0 2.4 1.08 2.4 2.4l0 2-4.8 0 0-2z"/></svg>
